Dominus_Dark_Funeral/22/apps/yast.svg

<svg xmlns="http://www.w3.org/2000/svg" width="24" height="24"><defs><linearGradient id="c"><stop offset="0"/><stop offset="1" stop-opacity="0"/></linearGradient><linearGradient id="b"><stop offset="0" stop-color="#666"/><stop offset="1" stop-color="#333"/></linearGradient><linearGradient id="a"><stop offset="0" stop-color="#520"/><stop offset=".26" stop-color="#784421"/><stop offset=".66" stop-color="#a05a2c"/><stop offset="1" stop-color="#d38d5f"/></linearGradient></defs><path d="M8.05 1.04c-1.14-.01-3.12.01-3.12.01s-.54.36-.52 1.98c.02 1.63 0 3.2.4 3.49 0 0 3.49-.1 3.77 0 .24.09.88.4 1.47.45.08.42.3 1.63.42 3.07l.01.16.04.65c.02.58-.1 6.71-.16 11.62.55.33 1.06.5 1.54.5.5 0 1.02-.17 1.6-.52l.01-.01-.13-11.48c.02-1.62.22-3.23.36-4a2.5 2.5 0 0 0 1.16-.25l3.83-.03s.18-.2.25-.34c0 0 .56-.88.6-2.97 0-.33 0-.6-.02-.83 0-.08-.02-.15-.03-.22l-.03-.2-.08-.34-.04-.07a1.61 1.61 0 0 0-.11-.25.92.92 0 0 0-.11-.14.53.53 0 0 0-.06-.05l-.03-.02a.3.3 0 0 0-.09-.04H16.1a2.9 2.9 0 0 1-1.16-.17H9.61a3.61 3.61 0 0 1-.8.01l-.75-.01z" fill="#e6e6e6"/></svg>

<?xml version="1.0" encoding="UTF-8" standalone="no"?>
<svg
   xmlns:dc="http://purl.org/dc/elements/1.1/"
   xmlns:cc="http://creativecommons.org/ns#"
   xmlns:rdf="http://www.w3.org/1999/02/22-rdf-syntax-ns#"
   xmlns:svg="http://www.w3.org/2000/svg"
   xmlns="http://www.w3.org/2000/svg"
   xmlns:sodipodi="http://sodipodi.sourceforge.net/DTD/sodipodi-0.dtd"
   xmlns:inkscape="http://www.inkscape.org/namespaces/inkscape"
   width="24"
   height="24"
   version="1.1"
   id="svg25"
   sodipodi:docname="yast.svg"
   inkscape:version="0.92.4 (5da689c313, 2019-01-14)">
  <metadata
     id="metadata29">
    <rdf:RDF>
      <cc:Work
         rdf:about="">
        <dc:format>image/svg+xml</dc:format>
        <dc:type
           rdf:resource="http://purl.org/dc/dcmitype/StillImage" />
        <dc:title></dc:title>
      </cc:Work>
    </rdf:RDF>
  </metadata>
  <sodipodi:namedview
     pagecolor="#ffffff"
     bordercolor="#666666"
     borderopacity="1"
     objecttolerance="10"
     gridtolerance="10"
     guidetolerance="10"
     inkscape:pageopacity="0"
     inkscape:pageshadow="2"
     inkscape:window-width="1138"
     inkscape:window-height="480"
     id="namedview27"
     showgrid="false"
     inkscape:zoom="9.8333333"
     inkscape:cx="1.0677966"
     inkscape:cy="12"
     inkscape:window-x="0"
     inkscape:window-y="25"
     inkscape:window-maximized="0"
     inkscape:current-layer="svg25" />
  <defs
     id="defs21">
    <linearGradient
       id="c">
      <stop
         offset="0"
         id="stop2" />
      <stop
         offset="1"
         stop-opacity="0"
         id="stop4" />
    </linearGradient>
    <linearGradient
       id="b">
      <stop
         offset="0"
         stop-color="#666"
         id="stop7" />
      <stop
         offset="1"
         stop-color="#333"
         id="stop9" />
    </linearGradient>
    <linearGradient
       id="a">
      <stop
         offset="0"
         stop-color="#520"
         id="stop12" />
      <stop
         offset=".26"
         stop-color="#784421"
         id="stop14" />
      <stop
         offset=".66"
         stop-color="#a05a2c"
         id="stop16" />
      <stop
         offset="1"
         stop-color="#d38d5f"
         id="stop18" />
    </linearGradient>
  </defs>
  <path
     d="M 8.05,1.04 C 6.91,1.03 4.93,1.05 4.93,1.05 c 0,0 -0.54,0.36 -0.52,1.98 0.02,1.63 0,3.2 0.4,3.49 0,0 3.49,-0.1 3.77,0 0.24,0.09 0.88,0.4 1.47,0.45 0.08,0.42 0.3,1.63 0.42,3.07 l 0.01,0.16 0.04,0.65 c 0.02,0.58 -0.1,6.71 -0.16,11.62 0.55,0.33 1.06,0.5 1.54,0.5 0.5,0 1.02,-0.17 1.6,-0.52 l 0.01,-0.01 -0.13,-11.48 c 0.02,-1.62 0.22,-3.23 0.36,-4 A 2.5,2.5 0 0 0 14.9,6.71 l 3.83,-0.03 c 0,0 0.18,-0.2 0.25,-0.34 0,0 0.56,-0.88 0.6,-2.97 0,-0.33 0,-0.6 -0.02,-0.83 0,-0.08 -0.02,-0.15 -0.03,-0.22 L 19.5,2.12 19.42,1.78 19.38,1.71 A 1.61,1.61 0 0 0 19.27,1.46 0.92,0.92 0 0 0 19.16,1.32 0.53,0.53 0 0 0 19.1,1.27 L 19.07,1.25 A 0.3,0.3 0 0 0 18.98,1.21 H 16.1 A 2.9,2.9 0 0 1 14.94,1.04 H 9.61 A 3.61,3.61 0 0 1 8.81,1.05 L 8.06,1.04 Z"
     id="path23"
     inkscape:connector-curvature="0"
     style="fill:#e6e6e6" />
</svg>
